dowodnowy_files/ai001_scanner_qr.svg

<svg width="24" height="24" xmlns="http://www.w3.org/2000/svg">

 <g>
  <title>Layer 1</title>
  <path id="path_0" d="m9.2,20.3c0,0.4 -0.3,0.8 -0.8,0.8l-3.2,0c-1.2,0 -2.3,-1 -2.3,-2.3l0,-3.3c0,-0.4 0.3,-0.8 0.8,-0.8s0.8,0.3 0.8,0.8l0,3.3c0,0.4 0.3,0.8 0.8,0.8l3.3,0c0.3,0 0.6,0.3 0.6,0.7zm-0.7,-17.4l-3.3,0c-1.2,0 -2.3,1 -2.3,2.3l0,3.3c0,0.4 0.3,0.8 0.8,0.8s0.8,-0.3 0.8,-0.8l0,-3.3c0,-0.4 0.3,-0.8 0.8,-0.8l3.3,0c0.4,0 0.8,-0.3 0.8,-0.8s-0.5,-0.7 -0.9,-0.7zm11.8,11.9c-0.4,0 -0.8,0.3 -0.8,0.8l0,3.3c0,0.4 -0.3,0.8 -0.8,0.8l-3.3,0c-0.4,0 -0.8,0.3 -0.8,0.8s0.3,0.8 0.8,0.8l3.3,0c1.2,0 2.3,-1 2.3,-2.3l0,-3.3c0.1,-0.6 -0.3,-0.9 -0.7,-0.9zm-1.5,-11.9l-3.3,0c-0.4,0 -0.8,0.3 -0.8,0.8s0.3,0.8 0.8,0.8l3.3,0c0.4,0 0.8,0.3 0.8,0.8l0,3.3c0,0.4 0.3,0.8 0.8,0.8s0.8,-0.3 0.8,-0.8l0,-3.4c-0.1,-1.3 -1.1,-2.3 -2.4,-2.3zm-10,12.4l0,-6.6c0,-0.4 -0.4,-0.7 -0.8,-0.7s-0.7,0.3 -0.7,0.7l0,6.5c0,0.5 0.3,0.8 0.7,0.8s0.8,-0.3 0.8,-0.7zm3.2,-9.3c-0.4,0 -0.8,0.3 -0.8,0.8l0,10.5c0,0.4 0.3,0.8 0.8,0.8s0.8,-0.3 0.8,-0.8l0,-10.6c0,-0.4 -0.4,-0.7 -0.8,-0.7zm4.8,9.3l0,-6.6c0,-0.4 -0.4,-0.7 -0.8,-0.7s-0.8,0.3 -0.8,0.8l0,6.5c0,0.4 0.3,0.8 0.8,0.8s0.8,-0.4 0.8,-0.8z" fill="#ffffff"/>
 </g>
</svg>

<svg id="vector" xmlns="http://www.w3.org/2000/svg" width="24.0d" height="24.0d" viewBox="0 0 24.0 24.0"><path fill="#010101ff" d="M9.2,20.3c0,0.4 -0.3,0.8 -0.8,0.8H5.2c-1.2,0 -2.3,-1 -2.3,-2.3v-3.3c0,-0.4 0.3,-0.8 0.8,-0.8s0.8,0.3 0.8,0.8v3.3c0,0.4 0.3,0.8 0.8,0.8h3.3C8.9,19.6 9.2,19.9 9.2,20.3zM8.5,2.9H5.2c-1.2,0 -2.3,1 -2.3,2.3v3.3c0,0.4 0.3,0.8 0.8,0.8s0.8,-0.3 0.8,-0.8V5.2c0,-0.4 0.3,-0.8 0.8,-0.8h3.3c0.4,0 0.8,-0.3 0.8,-0.8S8.9,2.9 8.5,2.9zM20.3,14.8c-0.4,0 -0.8,0.3 -0.8,0.8v3.3c0,0.4 -0.3,0.8 -0.8,0.8h-3.3c-0.4,0 -0.8,0.3 -0.8,0.8s0.3,0.8 0.8,0.8h3.3c1.2,0 2.3,-1 2.3,-2.3v-3.3C21.1,15.1 20.7,14.8 20.3,14.8zM18.8,2.9h-3.3c-0.4,0 -0.8,0.3 -0.8,0.8s0.3,0.8 0.8,0.8h3.3c0.4,0 0.8,0.3 0.8,0.8v3.3c0,0.4 0.3,0.8 0.8,0.8s0.8,-0.3 0.8,-0.8V5.2C21.1,3.9 20.1,2.9 18.8,2.9zM8.8,15.3V8.7C8.8,8.3 8.4,8 8,8S7.3,8.3 7.3,8.7v6.5C7.3,15.7 7.6,16 8,16S8.8,15.7 8.8,15.3zM12,6c-0.4,0 -0.8,0.3 -0.8,0.8v10.5c0,0.4 0.3,0.8 0.8,0.8s0.8,-0.3 0.8,-0.8V6.7C12.8,6.3 12.4,6 12,6zM16.8,15.3V8.7C16.8,8.3 16.4,8 16,8s-0.8,0.3 -0.8,0.8v6.5c0,0.4 0.3,0.8 0.8,0.8S16.8,15.7 16.8,15.3z" id="path_0"/></svg>
